X: 2096
T: The Devil Among The Tailors
B: nick
B: to learn
M:6/8
Q: 3/8=100
K:Amajor
V:1 
AcA cAc|ece aea|faf dfd|eae cec|
 dfd BdB|cec AcA|BdB GBG|1 A2A A3:|2 A3 A3||
 efe efe|ded ded|cdc cdc|BcB BcB|
 efe efe|ded ded|cdc cdc|B2B B3|
 AcA cAc|ece aea|faf dfd|eae cec|
 dfd BcB|cec Aca|BdB GBG|A2A A3||
% abcbook-tune_id 634560181232bd8b9e0b3c81


% abcbook-boost 0
% abcbook-tablature 
% abcbook-transpose 
% abcbook-lastupdated 1666005266585
% abcbook-soundfonts 
% abcbook-repeats 3


